!!!COM: Palestrina, Giovanni Perluigi da
!!!OPR: Missa Tu es Petrus (1887)
!!!OMD: Credo
!!!OTL: Et in Spiritum
**kern	**kern	**kern	**kern	**kern	**kern
*Ibass	*Ibarit	*Itenor	*Icalto	*Icant	*Icant
!Bassus	!Baritone	!Tenor	!Altus	!Cantus 2	!Cantus 1
*clefF4	*clefF4	*clefGv2	*clefG2	*clefG2	*clefG2
*k[]	*k[]	*k[]	*k[]	*k[]	*k[]
*G:mix	*G:mix	*G:mix	*G:mix	*G:mix	*G:mix
*M4/2	*M4/2	*M4/2	*M4/2	*M4/2	*M4/2
=119	=119	=119	=119	=119	=119
0G	0r	0d	0g	0r	0b
=120	=120	=120	=120	=120	=120
1G	0r	1g	1b	0r	1dd
2.c	.	2.g	2.cc	.	2.ee
4c	.	4g	4cc	.	4ee
=121	=121	=121	=121	=121	=121
2G	0r	2g	2b	0r	2dd
1A	.	1e	1a	.	1cc
2E	.	2e	2g	.	2b
=122	=122	=122	=122	=122	=122
2F	1r	2c	2f	1r	2a
2A	.	2c	2e	.	2cc
1G	2r	2d	1g	2r	2b
.	[2G	[2g	.	[2dd	[2b
=123	=123	=123	=123	=123	=123
0r	2G]	2g]	2r	2dd]	2b]
.	2G	2g	1g	2dd	2b
.	2c	2e	.	1ee	2.cc
.	2c	[2a	2e	.	.
.	.	.	.	.	4b
=124	=124	=124	=124	=124	=124
1D	0d	2a]	2f#	2dd	2a
.	.	2.g	2g	2.dd	2b
1D	.	.	1a	.	4a
.	.	8f#	.	8cc	8b
.	.	8e	.	8b	8cc
.	.	2f#	.	2a	[2dd
=125	=125	=125	=125	=125	=125
2G	1G	2.g	1g	4b	4dd]
.	.	.	.	4cc	4cc
2G	.	.	.	1dd	2b
.	.	4f	.	.	.
1A	1r	1e	1r	.	1a
.	.	.	.	2cc#	.
=126	=126	=126	=126	=126	=126
2D	2r	2f#	2r	0dd	2r
1G	1B	1g	1d	.	1b
2G	2B	2g	2d	.	2dd
=127	=127	=127	=127	=127	=127
1C	1c	1e	1g	0r	4cc
.	.	.	.	.	8b
.	.	.	.	.	8a
.	.	.	.	.	4g
.	.	.	.	.	4a
1G	1B	2d	1g	.	1b
.	.	[2e	.	.	.
=128	=128	=128	=128	=128	=128
2.A	2.c	4e]	0r	0r	1a
.	.	4c	.	.	.
.	.	2c	.	.	.
4F#	4A	.	.	.	.
2F#	2A	1d	.	.	1r
[2G	2B	.	.	.	.
=129	=129	=129	=129	=129	=129
2G]	2d	2B	1r	0r	0r
2E	1c	2.e	.	.	.
1F	.	.	2r	.	.
.	.	8d	.	.	.
.	.	8c	.	.	.
.	4B	2d	[2a	.	.
.	4A	.	.	.	.
=130	=130	=130	=130	=130	=130
1E	1B	0e	2a]	2r	2r
.	.	.	2g#	2b	1ee
1r	1A	.	1a	1cc	.
.	.	.	.	.	2ee
=131	=131	=131	=131	=131	=131
0r	0r	0r	4d	1dd	1ff
.	.	.	4e	.	.
.	.	.	4f	.	.
.	.	.	4g	.	.
.	.	.	2a	2cc	2ee
.	.	.	2e	2cc	2ee
=132	=132	=132	=132	=132	=132
0r	0r	0r	2g	2b	2dd
.	.	.	2a	2cc	2cc
.	.	.	1g	1dd	1b
=133	=133	=133	=133	=133	=133
1.C	1.c	1.e	1.g	1.ee	1.cc
2C	2c	2e	2g	2ee	2cc
=134	=134	=134	=134	=134	=134
1C	1c	2.e	1.g	1ee	1cc
.	.	4f	.	.	.
1G	1d	2g	.	1dd	1b
.	.	2G	2g	.	.
=135	=135	=135	=135	=135	=135
0C	1c	2.g	2.e	2.ee	2.cc
.	.	4f	4f	4dd	4dd
.	2.G	4e	1g	1cc	1ee
.	.	4d	.	.	.
.	.	2c	.	.	.
.	4A	.	.	.	.
=136	=136	=136	=136	=136	=136
1G	1B	1d	1g	1b	1dd
1G	2r	1g	2r	1b	1dd
.	[2G	.	2g	.	.
=137	=137	=137	=137	=137	=137
1.C	2G]	1.e	1.g	1.cc	1.ee
.	1c	.	.	.	.
2C	2c	2e	2g	2cc	2ee
=138	=138	=138	=138	=138	=138
1C	1c	2.e	1g	1cc	1ee
.	.	4f	.	.	.
1G	1d	2g	1g	1b	1dd
.	.	2G	.	.	.
=139	=139	=139	=139	=139	=139
0C	1c	2.g	2.e	2.cc	2.ee
.	.	4f	4f	4dd	4dd
.	2.G	4e	1g	1ee	1cc
.	.	4d	.	.	.
.	.	2c	.	.	.
.	4A	.	.	.	.
=140	=140	=140	=140	=140	=140
0G	1B	1d	1g	1dd	1b
.	2.G	2.g	1r	2.b	2.dd
.	4G	4g	.	4b	4dd
=141	=141	=141	=141	=141	=141
1r	2G	2g	1r	2b	2dd
.	2G	2g	.	2b	2dd
2.C	1c	[1e	2.g	[1cc	1ee
4C	.	.	4g	.	.
=142	=142	=142	=142	=142	=142
2C	2c	1e]	2g	1cc]	1gg
2C	2c	.	2g	.	.
1F	[1A	1c	2a	1cc	2ff
.	.	.	[2a	.	[2ff
=143	=143	=143	=143	=143	=143
2D	0A]	1f	2a]	1dd	4ff]
.	.	.	.	.	4ee
2D	.	.	2a	.	1dd
1A	.	1e	1a	2ee	.
.	.	.	.	2a	2cc#
=144	=144	=144	=144	=144	=144
1D	1A	0d	1f#	1a	1dd
1r	1G	.	2r	2r	1b
.	.	.	2g	2dd	.
=145	=145	=145	=145	=145	=145
0r	2c	0r	2g	2ee	2cc
.	2B	.	2g	2dd	2dd
.	1c	.	1g	1cc	1ee
=146	=146	=146	=146	=146	=146
0r	2G	2r	1g	2b	2dd
.	2G	2d	.	2dd	2b
.	2G	2g	2r	2dd	2b
.	2d	2f#	[2d	2dd	2a
=147	=147	=147	=147	=147	=147
0r	1G	1g	2d]	0dd	2.b
.	.	.	1g	.	.
.	.	.	.	.	8a
.	.	.	.	.	8g
.	1r	1d	.	.	1a
.	.	.	2f#	.	.
=148	=148	=148	=148	=148	=148
1G	0r	2r	1g	1b	1dd
.	.	2g	.	.	.
2c	.	2g	2r	2cc	2ee
2B	.	2g	2g	2dd	2dd
=149	=149	=149	=149	=149	=149
2.c	1r	2.g	2e	2.ee	2cc
.	.	.	2c	.	2cc
4c	.	4g	.	4ee	.
1G	2r	[1g	2.d	2dd	4b
.	.	.	.	.	4cc
.	2G	.	.	2gg	4dd
.	.	.	4d	.	4b
=150	=150	=150	=150	=150	=150
0r	2c	2g]	2c	2ee	2cc
.	2B	2g	2G	2dd	1dd
.	1c	2.e	[1g	2.ee	.
.	.	.	.	.	[2cc
.	.	8d	.	4ff	.
.	.	8c	.	.	.
=151	=151	=151	=151	=151	=151
2r	1G	2d	2g]	1gg	2cc]
2G	.	2d	2g	.	2b
[1c	1r	2e	1g	2r	1cc
.	.	2e	.	2g	.
=152	=152	=152	=152	=152	=152
2c]	0r	2e	2r	2a	0r
2B	.	2d	2d	2b	.
1A	.	2c	2e	1cc	.
.	.	2c	2f#	.	.
=153	=153	=153	=153	=153	=153
1G	0r	2d	1g	1b	1r
.	.	2e	.	.	.
[1F	.	2.f	1c	[1a	2r
.	.	.	.	.	2cc
.	.	4e	.	.	.
=154	=154	=154	=154	=154	=154
2F]	0r	2d	2f	2a]	2dd
2E	.	1c	2g	2cc	2ee
1D	.	.	4f	1dd	1ff
.	.	.	4e	.	.
.	.	2B	2d	.	.
=155	=155	=155	=155	=155	=155
0C	2r	1c	2e	2g	2ee
.	1c	.	1g	1cc	1ee
.	.	1r	.	.	.
.	2c	.	2g	2cc	2ee
=156	=156	=156	=156	=156	=156
0r	2A	0r	2a	2cc	2ee
.	2F	.	2a	2cc	2ff
.	1c	.	1g	1cc	1ee
=157	=157	=157	=157	=157	=157
0r	1G	2r	0g	4b	2dd
.	.	.	.	4cc	.
.	.	2d	.	4dd	4gg
.	.	.	.	4b	4ff
.	1c	4e	.	4cc	4ee
.	.	4f	.	4dd	4dd
.	.	4g	.	2ee	4cc
.	.	4e	.	.	4b
=158	=158	=158	=158	=158	=158
0r	1d	4f	0r	1dd	2a
.	.	4g	.	.	.
.	.	2.a	.	.	1dd
.	1e	.	.	1g	.
.	.	4g	.	.	.
.	.	[2g	.	.	2cc#
=159	=159	=159	=159	=159	=159
1D	1d	2g]	0r	1a	1dd
.	.	2f#	.	.	.
1E	2r	1g	.	2g	2r
.	2G	.	.	[2b	[2gg
=160	=160	=160	=160	=160	=160
1G	1B	2r	1d	2b]	2gg]
.	.	1g	.	1dd	2gg
1C	1c	.	1e	.	[1gg
.	.	2e	.	[2cc	.
=161	=161	=161	=161	=161	=161
1r	1G	1d	1g	4cc]	1gg]
.	.	.	.	8b	.
.	.	.	.	8a	.
.	.	.	.	2b	.
2r	1r	2c	1g	2cc	1ee
[2c	.	2g	.	[2ee	.
=162	=162	=162	=162	=162	=162
2c]	0r	2g	2.cc	2ee]	0r
2c	.	1a	.	2ee	.
.	.	.	4cc	.	.
2A	.	.	2cc	2ee	.
2F	.	2a	2cc	2ff	.
=163	=163	=163	=163	=163	=163
1c	0r	1g	1cc	1ee	2r
.	.	.	.	.	2cc
1G	.	1g	1b	2dd	1dd
.	.	.	.	4gg	.
.	.	.	.	4ff	.
=164	=164	=164	=164	=164	=164
0r	1c	1r	4cc	4ee	1ee
.	.	.	4b	4dd	.
.	.	.	4a	4cc	.
.	.	.	4g	4b	.
.	1d	2r	2f	2a	1dd
.	.	2f	[2a	[2dd	.
=165	=165	=165	=165	=165	=165
0r	1e	1g	2a]	2dd]	0r
.	.	.	1g	2cc#	.
.	1d	1a	.	1dd	.
.	.	.	2f#	.	.
=166	=166	=166	=166	=166	=166
1G	1B	2g	1g	2r	1dd
.	.	2d	.	2dd	.
1C	1c	1g	2r	1ee	1cc
.	.	.	2e	.	.
=167	=167	=167	=167	=167	=167
1G	2d	2G	1g	2dd	2b
.	2G	2g	.	2b	2dd
1r	2c	2e	2g	2cc	2ee
.	2c	2c	2g	2cc	2ee
=168	=168	=168	=168	=168	=168
0r	2G	2d	2g	2b	2dd
.	2G	2g	2d	2g	2b
.	4F	1c	2f	4a	[1cc
.	4G	.	.	4b	.
.	4A	.	2f	4cc	.
.	4B	.	.	4dd	.
=169	=169	=169	=169	=169	=169
0r	2c	0r	1e	4ee	2cc]
.	.	.	.	4ff	.
.	2e	.	.	1gg	2b
.	1d	.	1a	.	1dd
.	.	.	.	2ff#	.
=170	=170	=170	=170	=170	=170
1G	2r	1B	1g	2gg	2r
.	2G	.	.	2dd	2dd
1C	2.G	1c	2r	1cc	1ee
.	.	.	2g	.	.
.	4A	.	.	.	.
=171	=171	=171	=171	=171	=171
1G	1B	1d	1g	2b	2dd
.	.	.	.	2dd	2b
1C	2G	1c	[1g	2ee	2cc
.	2G	.	.	2ee	2cc
=172	=172	=172	=172	=172	=172
2G	1B	2d	2g]	2dd	2b
2G	.	2g	2d	2b	2g
2F	1A	[1c	2f	2cc	4a
.	.	.	.	.	4b
2F	.	.	2f	2a	4cc
.	.	.	.	.	4dd
=173	=173	=173	=173	=173	=173
1C	2.c	2c]	1e	1g	4ee
.	.	.	.	.	4ff
.	.	2G	.	.	1gg
.	4B	.	.	.	.
1D	2A	2.d	1a	2r	.
.	2A	.	.	2a	2ff#
.	.	4c	.	.	.
=174	=174	=174	=174	=174	=174
0G	2G	2B	2d	2b	1gg
.	2C	2e	2.g	2.cc	.
.	1G	1d	.	.	2r
.	.	.	4f	8b	.
.	.	.	.	8a	.
.	.	.	2d	2b	[2gg
=175	=175	=175	=175	=175	=175
0C	2r	0c	2.e	2.cc	4gg]
.	.	.	.	.	4ff
.	2G	.	.	.	4ee
.	.	.	4f	4dd	4dd
.	2.G	.	1g	1ee	1cc
.	4A	.	.	.	.
=176	=176	=176	=176	=176	=176
0G	0B	0d	0g	0dd	0b
==	==	==	==	==	==
*-	*-	*-	*-	*-	*-
!!!CDT: 1525/^1526/-1594/2/2
!!!OCY: Italia
!!!AGN: Mass (Parody)
!!!AST: renaissance, vocal
!!!ASW: Motet 1572 (Palestrina)
!!!PWK: Masses, Book 11
!!!RNB: Cadence finals: C,D
!!!YOR: Le Opere Complete, v. 28, p. 268
!!!YOO: Rome, Italy: Fratelli Scalera
!!!END: 1992//
!!!EED: John Miller
!!!YEC: Copyright 2000, John Miller
!!!YEN: United States of America
!!!YEM: Rights to all derivative electronic formats reserved.
!!!YEM: Refer to licensing agreement for further details.
!!!YEM: This file must be accompanied by the licensing agreement.
!!!YEM: A copy of the licensing agreement may be found at http://www.music-cog.ohio-state.edu/HumdrumDatabases/Palestrina/license.txt
!!!EMD: converted to Humdrum by Bret Aarden
